X:95
T: Dervish (The)
C: Johnny Harling
Z: B.Black
R: reel
M: 4/4
L: 1/8
K: G
f | gedB dG G2 | BGdG BG G2 | edBA GE E2 |\
DEGB A3 g |
gedB dG G2 | BGdG BG G2 | DG (3Bcd g3 e |\
dBAB G3 :|
F | G3 B dG (3Bcd | eGdG edBA | G3 B dG (3Bcd |\
edBG A3 B |
G3 B dG (3Bcd | eGdG eggf | g3 e dBeg | dBAB G3 :|
